X: 14543
T: Gan Ainm
R: jig
M: 6/8
K: Amajor
|:c|dcB BcA|FEE E2A|BBB cee|1 edc B2:|2 edc B2B||
BBB cee|edc B2 c/d/|e d/c/B/A/ BcA|1 FEE E2B:|2 FEE E2||

